actions/32/edit-delete.svg

<?xml version="1.0" encoding="UTF-8" standalone="no"?>
<svg
   xmlns:dc="http://purl.org/dc/elements/1.1/"
   xmlns:cc="http://creativecommons.org/ns#"
   xmlns:rdf="http://www.w3.org/1999/02/22-rdf-syntax-ns#"
   xmlns:svg="http://www.w3.org/2000/svg"
   xmlns="http://www.w3.org/2000/svg"
   xmlns:xlink="http://www.w3.org/1999/xlink"
   id="svg3119"
   height="32"
   width="32"
   version="1.1">
  <defs
     id="defs3121">
    <linearGradient
       gradientTransform="matrix(0.7435665,0,0,0.7435665,-1.845596,-2.5891636)"
       gradientUnits="userSpaceOnUse"
       xlink:href="#linearGradient3781"
       id="linearGradient3066"
       y2="45.074459"
       x2="24.481066"
       y1="5.0808945"
       x1="24.481066" />
    <linearGradient
       id="linearGradient3781">
      <stop
         offset="0"
         style="stop-color:#ffffff;stop-opacity:1"
         id="stop3783" />
      <stop
         offset="1"
         style="stop-color:#ffffff;stop-opacity:0"
         id="stop3785" />
    </linearGradient>
    <linearGradient
       id="linearGradient4011">
      <stop
         offset="0"
         style="stop-color:#ffffff;stop-opacity:1"
         id="stop4013" />
      <stop
         offset="0.507761"
         style="stop-color:#ffffff;stop-opacity:0.23529412"
         id="stop4015" />
      <stop
         offset="0.83456558"
         style="stop-color:#ffffff;stop-opacity:0.15686275"
         id="stop4017" />
      <stop
         offset="1"
         style="stop-color:#ffffff;stop-opacity:0.39215687"
         id="stop4019" />
    </linearGradient>
    <linearGradient
       id="linearGradient3242-1">
      <stop
         offset="0"
         style="stop-color:#f8b17e;stop-opacity:1"
         id="stop3244-9" />
      <stop
         offset="0.26238"
         style="stop-color:#e35d4f;stop-opacity:1"
         id="stop3246-4" />
      <stop
         offset="0.66093999"
         style="stop-color:#c6262e;stop-opacity:1"
         id="stop3248-7" />
      <stop
         offset="1"
         style="stop-color:#690b54;stop-opacity:1"
         id="stop3250-8" />
    </linearGradient>
    <linearGradient
       xlink:href="#linearGradient4011"
       id="linearGradient3017"
       gradientUnits="userSpaceOnUse"
       gradientTransform="matrix(0.72972967,0,0,0.72972967,-36.346078,-2.5039292)"
       x1="71.204407"
       y1="6.2375584"
       x2="71.204407"
       y2="44.340794" />
    <radialGradient
       xlink:href="#linearGradient3242-1"
       id="radialGradient3022"
       gradientUnits="userSpaceOnUse"
       gradientTransform="matrix(0,2.0590762,-2.7179439,0,26.844604,-48.288409)"
       cx="21.994528"
       cy="4.0384412"
       fx="21.994528"
       fy="4.0384412"
       r="20.397499" />
    <radialGradient
       xlink:href="#linearGradient3820-7-2-2"
       id="radialGradient4048"
       gradientUnits="userSpaceOnUse"
       gradientTransform="matrix(0.17524541,0,0,0.05575992,-1.3768101,18.11895)"
       cx="99.157013"
       cy="186.17059"
       fx="99.157013"
       fy="186.17059"
       r="62.769119" />
    <linearGradient
       id="linearGradient3820-7-2-2">
      <stop
         id="stop3822-2-6-36"
         style="stop-color:#3d3d3d;stop-opacity:1"
         offset="0" />
      <stop
         id="stop3864-8-7-6"
         style="stop-color:#686868;stop-opacity:0.49803922"
         offset="0.5" />
      <stop
         id="stop3824-1-2-4"
         style="stop-color:#686868;stop-opacity:0"
         offset="1" />
    </linearGradient>
  </defs>
  <metadata
     id="metadata3124">
    <rdf:RDF>
      <cc:Work
         rdf:about="">
        <dc:format>image/svg+xml</dc:format>
        <dc:type
           rdf:resource="http://purl.org/dc/dcmitype/StillImage" />
        <dc:title />
      </cc:Work>
    </rdf:RDF>
  </metadata>
  <path
     d="m 27.000001,28.499804 a 11,3.4999999 0 1 1 -21.9999997,0 11,3.4999999 0 1 1 21.9999997,0 z"
     id="path3818-0-2"
     style="fill:url(#radialGradient4048);fill-opacity:1;stroke:none" />
  <path
     d="m 16.00003,1.5017681 c -7.9996069,0 -14.4982029,6.4985937 -14.4982029,14.4982019 0,7.999609 6.498596,14.498206 14.4982029,14.498203 7.999605,0 14.498209,-6.498594 14.498201,-14.498203 0,-7.9996082 -6.498596,-14.4982019 -14.498201,-14.4982019 z m 0,4.6545688 c 5.438654,0 9.843632,4.4049791 9.843632,9.8436331 0,2.282558 -0.790869,4.36616 -2.093444,6.035351 L 11.27865,7.3589524 C 12.679865,6.5922647 14.289374,6.1563369 16.00003,6.1563369 Z M 8.1162141,10.120515 20.543247,24.730071 c -1.359177,0.708108 -2.903883,1.113533 -4.543217,1.113533 -5.438653,-10e-7 -9.8436339,-4.404979 -9.8436339,-9.843634 0,-2.209452 0.731868,-4.237231 1.959818,-5.879455 z"
     id="path2555-0"
     style="fill:url(#radialGradient3022);fill-opacity:1;stroke:none;stroke-width:1.00365412;stroke-linecap:round;stroke-linejoin:round;stroke-miterlimit:4;stroke-dasharray:none;stroke-dashoffset:0;stroke-opacity:1;color:#000000;clip-rule:nonzero;display:inline;overflow:visible;visibility:visible;opacity:1;isolation:auto;mix-blend-mode:normal;color-interpolation:sRGB;color-interpolation-filters:linearRGB;solid-color:#000000;solid-opacity:1;fill-rule:nonzero;filter-blend-mode:normal;filter-gaussianBlur-deviation:0;color-rendering:auto;image-rendering:auto;shape-rendering:auto;text-rendering:auto;enable-background:accumulate" />
  <path
     d="M 10.590984,8.0890976 23.13079,22.817941"
     id="path3270"
     style="opacity:0.4;fill:none;stroke:url(#linearGradient3066);stroke-width:1px;stroke-linecap:round;stroke-linejoin:miter;stroke-opacity:1" />
  <path
     style="color:#000000;display:inline;overflow:visible;visibility:visible;opacity:0.5;fill:none;stroke:url(#linearGradient3017);stroke-width:0.99999994;stroke-linecap:round;stroke-linejoin:round;stroke-miterlimit:4;stroke-dasharray:none;stroke-dashoffset:0;stroke-opacity:1;marker:none;enable-background:accumulate"
     id="path8655-6-2"
     d="M 29.5,15.999522 C 29.5,23.455606 23.455399,29.5 16.000171,29.5 8.5442604,29.5 2.5,23.455537 2.5,15.999522 2.5,8.5437832 8.5442604,2.5000023 16.000171,2.5000023 23.455399,2.5000023 29.5,8.5437832 29.5,15.999522 l 0,0 z" />
  <path
     d="m 16.00003,1.501768 c -7.9996069,0 -14.4982029,6.4985937 -14.4982029,14.498202 0,7.999609 6.498596,14.498206 14.4982029,14.498203 7.999605,0 14.498209,-6.498594 14.498201,-14.498203 0,-7.9996083 -6.498596,-14.498202 -14.498201,-14.498202 z m 0,4.6545688 c 5.438654,0 9.843632,4.4049792 9.843632,9.8436332 0,2.282558 -0.790869,4.36616 -2.093444,6.035351 L 11.27865,7.3589523 C 12.679865,6.5922646 14.289374,6.1563368 16.00003,6.1563368 Z M 8.1162141,10.120515 20.543247,24.730071 c -1.359177,0.708108 -2.903883,1.113533 -4.543217,1.113533 -5.438653,-10e-7 -9.8436339,-4.404979 -9.8436339,-9.843634 0,-2.209452 0.731868,-4.237231 1.959818,-5.879455 z"
     id="path2555-0-3"
     style="color:#000000;clip-rule:nonzero;display:inline;overflow:visible;visibility:visible;opacity:0.5;isolation:auto;mix-blend-mode:normal;color-interpolation:sRGB;color-interpolation-filters:linearRGB;solid-color:#000000;solid-opacity:1;fill:none;fill-opacity:1;fill-rule:nonzero;stroke:#6f0000;stroke-width:1;stroke-linecap:round;stroke-linejoin:round;stroke-miterlimit:4;stroke-dasharray:none;stroke-dashoffset:0;stroke-opacity:1;color-rendering:auto;image-rendering:auto;shape-rendering:auto;text-rendering:auto;enable-background:accumulate;marker:none;filter-blend-mode:normal;filter-gaussianBlur-deviation:0" />
</svg>

<svg xmlns="http://www.w3.org/2000/svg" xmlns:xlink="http://www.w3.org/1999/xlink" viewBox="0 0 32 32"><defs><linearGradient gradientTransform="translate(-1.846 -2.59) scale(.74357)" gradientUnits="userSpaceOnUse" xlink:href="#a" id="g" y2="45.074" x2="24.481" y1="5.081" x1="24.481"/><linearGradient id="a"><stop offset="0" stop-color="#fff"/><stop offset="1" stop-color="#fff" stop-opacity="0"/></linearGradient><linearGradient id="b"><stop offset="0" stop-color="#fff"/><stop offset=".508" stop-color="#fff" stop-opacity=".235"/><stop offset=".835" stop-color="#fff" stop-opacity=".157"/><stop offset="1" stop-color="#fff" stop-opacity=".392"/></linearGradient><linearGradient id="c"><stop offset="0" stop-color="#f8b17e"/><stop offset=".262" stop-color="#e35d4f"/><stop offset=".661" stop-color="#c6262e"/><stop offset="1" stop-color="#690b54"/></linearGradient><linearGradient xlink:href="#b" id="h" gradientUnits="userSpaceOnUse" gradientTransform="translate(-36.346 -2.504) scale(.72973)" x1="71.204" y1="6.238" x2="71.204" y2="44.341"/><radialGradient xlink:href="#c" id="f" gradientUnits="userSpaceOnUse" gradientTransform="matrix(0 2.05908 -2.71794 0 26.845 -48.288)" cx="21.995" cy="4.038" fx="21.995" fy="4.038" r="20.397"/><radialGradient xlink:href="#d" id="e" gradientUnits="userSpaceOnUse" gradientTransform="matrix(.17525 0 0 .05576 -1.377 18.12)" cx="99.157" cy="186.171" fx="99.157" fy="186.171" r="62.769"/><linearGradient id="d"><stop offset="0" stop-color="#3d3d3d"/><stop offset=".5" stop-color="#686868" stop-opacity=".498"/><stop offset="1" stop-color="#686868" stop-opacity="0"/></linearGradient></defs><path d="M27 28.5a11 3.5 0 1 1-22 0 11 3.5 0 1 1 22 0z" fill="url(#e)"/><path d="M16 1.502C8 1.502 1.502 8 1.502 16 1.502 24 8 30.498 16 30.498 24 30.498 30.498 24 30.498 16 30.498 8 24 1.502 16 1.502zm0 4.654A9.84 9.84 0 0 1 25.844 16c0 2.283-.79 4.366-2.094 6.035L11.28 7.36A9.808 9.808 0 0 1 16 6.155zM8.116 10.12l12.427 14.61A9.84 9.84 0 0 1 6.156 16c0-2.21.732-4.237 1.96-5.88z" style="isolation:auto;mix-blend-mode:normal;filter-blend-mode:normal;filter-gaussianBlur-deviation:0" fill="url(#f)" color="#000" overflow="visible"/><path d="M10.59 8.09l12.54 14.728" opacity=".4" fill="none" stroke="url(#g)" stroke-linecap="round"/><path d="M29.5 16c0 7.456-6.045 13.5-13.5 13.5-7.456 0-13.5-6.044-13.5-13.5S8.544 2.5 16 2.5c7.455 0 13.5 6.044 13.5 13.5z" color="#000" overflow="visible" opacity=".5" fill="none" stroke="url(#h)" stroke-linecap="round" stroke-linejoin="round"/><path d="M16 1.502C8 1.502 1.502 8 1.502 16 1.502 24 8 30.498 16 30.498 24 30.498 30.498 24 30.498 16 30.498 8 24 1.502 16 1.502zm0 4.654A9.84 9.84 0 0 1 25.844 16c0 2.283-.79 4.366-2.094 6.035L11.28 7.36A9.808 9.808 0 0 1 16 6.155zM8.116 10.12l12.427 14.61A9.84 9.84 0 0 1 6.156 16c0-2.21.732-4.237 1.96-5.88z" style="isolation:auto;mix-blend-mode:normal;filter-blend-mode:normal;filter-gaussianBlur-deviation:0" color="#000" overflow="visible" opacity=".5" fill="none" stroke="#6f0000" stroke-linecap="round" stroke-linejoin="round"/></svg>
